X:412
M:C|
L:1/8
K:F
g|f/g/a af gefd|cAFA GFDg|f/g/a af gefd|cAba g2 f>g|
f/g/a af gefd|cAFA GFDg|f/g/a af gefd|cAba g2g||

